formas-de-pagamento/aura.svg

<svg enable-background="new 0 0 60 40" height="40" viewBox="0 0 60 40" width="60" xmlns="http://www.w3.org/2000/svg"><switch><foreignObject height="1" requiredExtensions="http://ns.adobe.com/AdobeIllustrator/10.0/" width="1"/><g><path d="m60 35c0 2.75-2.25 5-5 5h-50c-2.75 0-5-2.25-5-5v-30c0-2.75 2.25-5 5-5h50c2.75 0 5 2.25 5 5z" fill="#152884"/><path d="m0 23.466v11.534c0 2.75 2.25 5 5 5h50c2.75 0 5-2.25 5-5v-10.166c-10.932-3.644-30.186-8.949-60-1.368z" fill="#ffed00"/><path d="m0 19.628v5.839c29.814-7.58 49.068-2.275 60 1.367v-6.098c-7.619-2.826-30.509-9.152-60-1.108z" fill="#eb212e"/><path d="m18.975 16.157c1.499-4.143 4.93-7.721 10.892-7.682 5.961.04 9.937 3.445 11.01 7.9-7.682-.798-12.803-.938-21.902-.218z" fill="#ffed00"/><path d="m45.439 31.176c-.699.142-1.407.236-2.118.282-.38.022-.758.071-1.131.147-.187.035-.363.115-.512.233-.11.084-.176.213-.182.352 0 .198.133.363.393.496.363.151.755.218 1.148.198.452.008.902-.055 1.334-.186.329-.088.626-.266.859-.514.155-.215.229-.478.21-.743zm.109 1.657c-.444.22-.913.386-1.397.496-.471.099-.951.147-1.432.144-.84 0-1.485-.116-1.939-.352s-.677-.535-.677-.901c.002-.223.095-.435.256-.589.189-.189.417-.335.668-.426.301-.11.613-.188.931-.233.254-.037.638-.077 1.15-.112.776-.04 1.548-.125 2.314-.256 0-.102 0-.165 0-.193.02-.268-.126-.521-.368-.638-.467-.194-.971-.28-1.476-.251-.458-.023-.917.04-1.352.184-.292.124-.523.357-.645.649l-1.266-.1c.109-.302.307-.564.568-.752.347-.225.737-.376 1.145-.442.572-.109 1.154-.161 1.737-.154.534-.01 1.067.034 1.592.133.319.054.625.167.903.333.183.123.323.3.403.505.052.224.074.454.063.684v.989c-.021.438.008.877.084 1.308.065.199.178.38.328.526h-1.355c-.134-.153-.223-.34-.258-.54zm-11.05.54v-4.379h1.164v.663c.229-.261.511-.47.826-.615.265-.101.547-.152.831-.149.455.001.906.08 1.334.233l-.447.698c-.305-.107-.626-.162-.95-.163-.263-.004-.523.046-.766.147-.202.078-.372.221-.482.407-.145.265-.22.563-.216.866v2.293zm-4.306 0v-.642c-.597.495-1.408.743-2.43.743-.426.003-.85-.046-1.264-.147-.312-.064-.609-.191-.871-.372-.184-.14-.323-.331-.4-.549-.063-.227-.089-.463-.079-.698v-2.712h1.297v2.428c-.014.264.012.529.079.784.105.218.291.385.519.466.313.119.647.175.982.165.371.003.741-.054 1.094-.17.284-.075.538-.238.724-.466.159-.256.234-.556.214-.857v-2.351h1.297v4.379h-1.162zm-13.934-2.484h3.582l-1.103-1.674c-.273-.403-.523-.822-.747-1.255-.143.409-.335.8-.57 1.164l-1.164 1.771zm-3.047 2.484 4.057-6.052h1.494l4.323 6.052h-1.583l-1.231-1.832h-4.423l-1.164 1.832z" fill="#152884"/><path d="m55 0h-50c-2.75 0-5 2.25-5 5v30c0 2.75 2.25 5 5 5h50c2.75 0 5-2.25 5-5v-30c0-2.75-2.25-5-5-5zm0 1c2.206 0 4 1.794 4 4v30c0 2.206-1.794 4-4 4h-50c-2.206 0-4-1.794-4-4v-30c0-2.206 1.794-4 4-4z" fill="#fff" opacity=".25"/></g></switch></svg>

<?xml version="1.0" encoding="UTF-8"?>
<svg width="60px" height="40px" viewBox="0 0 60 40" version="1.1" xmlns="http://www.w3.org/2000/svg" xmlns:xlink="http://www.w3.org/1999/xlink">
    <!-- Generator: Sketch 52.4 (67378) - http://www.bohemiancoding.com/sketch -->
    <title>Artboard</title>
    <desc>Created with Sketch.</desc>
    <g id="Artboard" stroke="none" stroke-width="1" fill="none" fill-rule="evenodd">
        <g id="aura">
            <path d="M0,23.466 L0,35 C0,37.75 2.25,40 5,40 L55,40 C57.75,40 60,37.75 60,35 L60,24.834 C49.068,21.19 29.814,15.885 0,23.466 Z" id="Path" fill="#FFED00"></path>
            <path d="M0,23.466 L0,5 C0,2.25 2.25,0 5,0 L55,0 C57.75,0 60,2.25 60,5 L60,24.834 C49.068,21.19 29.814,15.885 0,23.466 Z" id="Combined-Shape" fill="#152884"></path>
            <path d="M0,19.628 L0,25.467 C29.814,17.887 49.068,23.192 60,26.834 L60,20.736 C52.381,17.91 29.491,11.584 0,19.628 Z" id="Path" fill="#EB212E"></path>
            <path d="M18.975,16.157 C20.474,12.014 23.905,8.436 29.867,8.475 C35.828,8.515 39.804,11.92 40.877,16.375 C33.195,15.577 28.074,15.437 18.975,16.157 Z" id="Path" fill="#FFED00"></path>
            <path d="M45.439,31.176 C44.74,31.318 44.032,31.412 43.321,31.458 C42.941,31.48 42.563,31.529 42.19,31.605 C42.003,31.64 41.827,31.72 41.678,31.838 C41.568,31.922 41.502,32.051 41.496,32.19 C41.496,32.388 41.629,32.553 41.889,32.686 C42.252,32.837 42.644,32.904 43.037,32.884 C43.489,32.892 43.939,32.829 44.371,32.698 C44.7,32.61 44.997,32.432 45.23,32.184 C45.385,31.969 45.459,31.706 45.44,31.441 L45.439,31.176 Z M45.548,32.833 C45.104,33.053 44.635,33.219 44.151,33.329 C43.68,33.428 43.2,33.476 42.719,33.473 C41.879,33.473 41.234,33.357 40.78,33.121 C40.326,32.885 40.103,32.586 40.103,32.22 C40.105,31.997 40.198,31.785 40.359,31.631 C40.548,31.442 40.776,31.296 41.027,31.205 C41.328,31.095 41.64,31.017 41.958,30.972 C42.212,30.935 42.596,30.895 43.108,30.86 C43.884,30.82 44.656,30.735 45.422,30.604 C45.422,30.502 45.422,30.439 45.422,30.411 C45.442,30.143 45.296,29.89 45.054,29.773 C44.587,29.579 44.083,29.493 43.578,29.522 C43.12,29.499 42.661,29.562 42.226,29.706 C41.934,29.83 41.703,30.063 41.581,30.355 L40.315,30.255 C40.424,29.953 40.622,29.691 40.883,29.503 C41.23,29.278 41.62,29.127 42.028,29.061 C42.6,28.952 43.182,28.9 43.765,28.907 C44.299,28.897 44.832,28.941 45.357,29.04 C45.676,29.094 45.982,29.207 46.26,29.373 C46.443,29.496 46.583,29.673 46.663,29.878 C46.715,30.102 46.737,30.332 46.726,30.562 L46.726,31.551 C46.705,31.989 46.734,32.428 46.81,32.859 C46.875,33.058 46.988,33.239 47.138,33.385 L45.783,33.385 C45.649,33.232 45.56,33.045 45.525,32.845 L45.548,32.833 Z M34.498,33.373 L34.498,28.994 L35.662,28.994 L35.662,29.657 C35.891,29.396 36.173,29.187 36.488,29.042 C36.753,28.941 37.035,28.89 37.319,28.893 C37.774,28.894 38.225,28.973 38.653,29.126 L38.206,29.824 C37.901,29.717 37.58,29.662 37.256,29.661 C36.993,29.657 36.733,29.707 36.49,29.808 C36.288,29.886 36.118,30.029 36.008,30.215 C35.863,30.48 35.788,30.778 35.792,31.081 L35.792,33.374 L34.498,33.373 Z M30.192,33.373 L30.192,32.731 C29.595,33.226 28.784,33.474 27.762,33.474 C27.336,33.477 26.912,33.428 26.498,33.327 C26.186,33.263 25.889,33.136 25.627,32.955 C25.443,32.815 25.304,32.624 25.227,32.406 C25.164,32.179 25.138,31.943 25.148,31.708 L25.148,28.996 L26.445,28.996 L26.445,31.424 C26.431,31.688 26.457,31.953 26.524,32.208 C26.629,32.426 26.815,32.593 27.043,32.674 C27.356,32.793 27.69,32.849 28.025,32.839 C28.396,32.842 28.766,32.785 29.119,32.669 C29.403,32.594 29.657,32.431 29.843,32.203 C30.002,31.947 30.077,31.647 30.057,31.346 L30.057,28.995 L31.354,28.995 L31.354,33.374 L30.192,33.374 L30.192,33.373 Z M16.258,30.889 L19.84,30.889 L18.737,29.215 C18.464,28.812 18.214,28.393 17.99,27.96 C17.847,28.369 17.655,28.76 17.42,29.124 L16.256,30.895 L16.258,30.889 Z M13.211,33.373 L17.268,27.321 L18.762,27.321 L23.085,33.373 L21.502,33.373 L20.271,31.541 L15.848,31.541 L14.684,33.373 L13.211,33.373 Z" id="Shape" fill="#152884" fill-rule="nonzero"></path>
        </g>
    </g>
</svg>
